src/Icon/svgs/GearOutline.svg

<svg width="24" height="24" viewBox="0 0 24 24" fill="none" xmlns="http://www.w3.org/2000/svg">
<path fill-rule="evenodd" clip-rule="evenodd" d="M20.8733 18.6798L18.6562 20.897L15.8183 20.1065L15.0067 20.4412L13.5498 22.999H10.4153L8.96644 20.4325L8.15567 20.0925L5.31809 20.8733L3.10197 18.6572L3.89252 15.8193L3.55774 15.0076L1 13.5496V10.4151L3.56758 8.96634L3.90748 8.15567L3.1267 5.31809L5.34198 3.10281L8.17985 3.89446L8.99072 3.56004L10.4454 1H13.5808L15.0296 3.56758L15.8403 3.90748L18.6774 3.12683L20.8961 5.34235L20.1055 8.18067L20.44 8.99173L23 10.4464V13.5818L20.4327 15.0305L20.0925 15.843L20.8733 18.6798ZM17.9809 15.7078L18.8527 13.6256L21 12.4139V11.6103L18.8534 10.3906L17.9941 8.30696L18.6558 5.93166L18.087 5.36362L15.7044 6.0192L13.6245 5.1471L12.4129 3H11.6093L10.3895 5.14655L8.30576 6.00595L5.93001 5.34321L5.36375 5.90947L6.0192 8.29155L5.1471 10.3715L3 11.583V12.3876L5.14482 13.6101L6.00385 15.693L5.34203 18.0688L5.90947 18.6362L8.29155 17.9808L10.3714 18.8529L11.5829 20.999H12.3873L13.609 18.8542L15.692 17.9951L18.0678 18.657L18.6362 18.0886L17.9809 15.7078ZM12 16C9.79086 16 8 14.2091 8 12C8 9.79086 9.79086 8 12 8C14.2091 8 16 9.79086 16 12C16 14.2091 14.2091 16 12 16ZM12 14C13.1046 14 14 13.1046 14 12C14 10.8954 13.1046 10 12 10C10.8954 10 10 10.8954 10 12C10 13.1046 10.8954 14 12 14Z" fill="#1B1C1D"/>
</svg>

<svg xmlns="http://www.w3.org/2000/svg" width="24" height="24" fill="none"  xmlns:v="https://vecta.io/nano"><path fill-rule="evenodd" d="M20.873 18.68l-2.217 2.217-2.838-.79-.812.335L13.549 23h-3.134l-1.449-2.566-.811-.34-2.838.781-2.216-2.216.791-2.838-.335-.812L1 13.55v-3.134l2.568-1.449.34-.811-.781-2.838 2.215-2.215 2.838.792.811-.334L10.445 1h3.135l1.449 2.568.811.34 2.837-.781 2.219 2.216-.791 2.838.335.811L23 10.446v3.135l-2.567 1.449-.34.813.781 2.837zm-2.892-2.972l.872-2.082L21 12.414v-.804l-2.147-1.22-.859-2.084.662-2.375-.569-.568-2.383.656-2.08-.872L12.413 3h-.804l-1.22 2.147-2.084.859-2.376-.663-.566.566.655 2.382-.872 2.08L3 11.583v.805l2.145 1.222.859 2.083-.662 2.376.567.567 2.382-.655 2.08.872 1.212 2.146h.804l1.222-2.145 2.083-.859 2.376.662.568-.568-.655-2.381zM12 16a4 4 0 1 1 0-8 4 4 0 1 1 0 8zm0-2a2 2 0 1 0 0-4 2 2 0 1 0 0 4z" fill="#1b1c1d"/></svg>
